svg/u1f494.svg

<svg viewBox="0 0 128 128" xmlns="http://www.w3.org/2000/svg">
  <g>
    <g>
      <path d="M93.96,8.96c-10.01,0-17.79,6.18-22.76,13.12c-5.57,7.77-11.05,20.8-13.12,25.96 c-0.54,1.35-0.28,2.88,0.67,3.98l13.65,15.85c0.43,0.5,0.49,1.21,0.17,1.78L61.17,89.34c-0.43,0.75-0.54,1.63-0.31,2.46 l6.26,22.43c0.28,0.99,1.46,1.38,2.27,0.75c13.33-10.44,47.44-39.08,53.04-63.02C129.41,22.1,111.87,8.96,93.96,8.96z" fill="#F44336"/>
      <path d="M63.55,68.35L48.94,51.37l10.93-23.2c0.79-1.68,0.65-3.67-0.42-5.19 C54.97,16.62,46.9,8.96,33.99,8.96c-16.58,0-35.48,13.14-28.5,43.01c5.39,23.06,37.71,51.36,52.02,62.68 c0.36,0.29,0.9,0.05,0.93-0.42l0.61-7.11l-6.09-17.57l10.83-18.74C64.24,70.03,64.15,69.04,63.55,68.35z" fill="#F44336"/>
    </g>
    <path d="M93.96,8.96c-6.63,0-12.27,2.72-16.77,6.56c0,0,0,0,0,0c0.81-0.59,6.11-4.33,12.05-4.33 c16.21,0,30.72,12.29,24.17,40.7c-5.24,22.72-34.09,49.96-46.12,62.7c0.43,0.71,1.41,0.94,2.11,0.39 c13.33-10.44,47.44-39.08,53.04-63.02C129.41,22.1,111.87,8.96,93.96,8.96z" fill="#CC3333"/>
    <path d="M77.13,34.65c-1.76,0-3-1.7-2.36-3.34c1.19-3.02,2.73-5.94,4.58-8.54 c2.74-3.84,7.95-6.08,11.25-3.75c3.38,2.38,2.94,7.14,0.57,9.44C86.07,33.39,79.66,34.65,77.13,34.65z" fill="#FF8A80"/>
    <path d="M17,24.82c3.75-4.68,10.45-8.55,16.13-4.09c3.07,2.41,1.73,7.35-1.02,9.43 c-4,3.04-7.48,4.87-9.92,9.63c-1.46,2.86-2.34,5.99-2.79,9.18c-0.18,1.26-1.83,1.57-2.45,0.46C12.73,41.94,11.53,31.64,17,24.82z" fill="#FF8A80"/>
    <path d="M52.96,89.55l10.83-18.74c0.46-0.79,0.36-1.78-0.23-2.47L48.94,51.37L60.59,27.1 c0.79-1.68,0.65-3.67-0.42-5.19C55.69,15.55,46.9,8.96,33.99,8.96c-10.02,0-20.89,4.81-26.38,15.22 c5.92-7.45,15.06-10.94,23.59-10.94c12.91,0,20.98,7.66,25.46,14.02c1.07,1.52,1.21,3.51,0.42,5.19l-10.93,23.2l14.62,16.98 c0.59,0.69,0.69,1.68,0.23,2.47L50.17,93.83c0,0,5.91,15.8,8.1,20.7c0,0,0.17,0,0.3-0.85c0,0,0.88-6.25,0.4-7.74 C58.52,104.52,52.96,89.55,52.96,89.55z" fill="#CC3333"/>
  </g>
</svg>

<svg viewBox="0 0 128 128" xmlns="http://www.w3.org/2000/svg">
  <defs/>
  <path d="M93.96,8.96 C83.95,8.96 76.17,15.14 71.2,22.08 C65.63,29.85 60.15,42.88 58.08,48.04 C57.54,49.39 57.8,50.92 58.75,52.02 L72.4,67.87 C72.83,68.37 72.89,69.08 72.57,69.65 L61.17,89.34 C60.74,90.09 60.63,90.97 60.86,91.8 L67.12,114.23 C67.4,115.22 68.58,115.61 69.39,114.98 C82.72,104.54 116.83,75.9 122.43,51.96 C129.41,22.1 111.87,8.96 93.96,8.96 Z" fill="#F44336"/>
  <path d="M63.55,68.35 L48.94,51.37 L59.87,28.17 C60.66,26.49 60.52,24.5 59.45,22.98 C54.97,16.62 46.9,8.96 33.99,8.96 C17.41,8.96 -1.49,22.1 5.49,51.97 C10.88,75.03 43.2,103.33 57.51,114.65 C57.87,114.94 58.41,114.7 58.44,114.23 L59.05,107.12 L52.96,89.55 L63.79,70.81 C64.24,70.03 64.15,69.04 63.55,68.35 Z" fill="#F44336"/>
  <path d="M93.96,8.96 C87.33,8.96 81.69,11.68 77.19,15.52 C77.19,15.52 77.19,15.52 77.19,15.52 C78,14.93 83.3,11.19 89.24,11.19 C105.45,11.19 119.96,23.48 113.41,51.89 C108.17,74.61 79.32,101.85 67.29,114.59 C67.72,115.3 68.7,115.53 69.4,114.98 C82.73,104.54 116.84,75.9 122.44,51.96 C129.41,22.1 111.87,8.96 93.96,8.96 Z" fill="#CC3333"/>
  <path d="M77.13,34.65 C75.37,34.65 74.13,32.95 74.77,31.31 C75.96,28.29 77.5,25.37 79.35,22.77 C82.09,18.93 87.3,16.69 90.6,19.02 C93.98,21.4 93.54,26.16 91.17,28.46 C86.07,33.39 79.66,34.65 77.13,34.65 Z" fill="#FF8A80"/>
  <path d="M17,24.82 C20.75,20.14 27.45,16.27 33.13,20.73 C36.2,23.14 34.86,28.08 32.11,30.16 C28.11,33.2 24.63,35.03 22.19,39.79 C20.73,42.65 19.85,45.78 19.4,48.97 C19.22,50.23 17.57,50.54 16.95,49.43 C12.73,41.94 11.53,31.64 17,24.82 Z" fill="#FF8A80"/>
  <path d="M52.96,89.55 L63.79,70.81 C64.25,70.02 64.15,69.03 63.56,68.34 L48.94,51.37 L60.59,27.1 C61.38,25.42 61.24,23.43 60.17,21.91 C55.69,15.55 46.9,8.96 33.99,8.96 C23.97,8.96 13.1,13.77 7.61,24.18 C13.53,16.73 22.67,13.24 31.2,13.24 C44.11,13.24 52.18,20.9 56.66,27.26 C57.73,28.78 57.87,30.77 57.08,32.45 L46.15,55.65 L60.77,72.63 C61.36,73.32 61.46,74.31 61,75.1 L50.17,93.83 C50.17,93.83 56.08,109.63 58.27,114.53 C58.27,114.53 58.44,114.53 58.57,113.68 C58.57,113.68 59.45,107.43 58.97,105.94 C58.52,104.52 52.96,89.55 52.96,89.55 Z" fill="#CC3333"/>
</svg>
